;FLAVOR:Marlin
;TIME:22195
;Filament used: 16.6473m
;Layer height: 0.2
;MINX:12.35
;MINY:54.6
;MINZ:0.2
;MAXX:197.65
;MAXY:155.4
;MAXZ:6.4
;Generated with Cura_SteamEngine 4.8.0
M140 S60
M105
M190 S60
M104 S200
M105
M109 S200
M82 ;absolute extrusion mode
G21 ;metric values
G90 ;absolute positioning
M82 ;set extruder to absolute mode
M107 ;start with the fan off
G28 X0 Y0 ;move X/Y to min endstops
G28 Z0 ;move Z to min endstops
G1 Z15.0 F100 ;move the platform down 15mm
G92 E0 ;zero the extruded length
G1 F200 E3 ;extrude 3mm of feed stock
G92 E0 ;zero the extruded length again
G1 F100
G0 Y20 F100
M117 Printing...
G5
G92 E0
G92 E0
G1 F2400 E-6
;LAYER_COUNT:32
;LAYER:0
M106 S255
M204 S3000
M205 X10 Y10
G1 F600 Z0.275
G0 F3000 X16.702 Y54.949 Z0.275
M204 S1800
M205 X8 Y8
;TYPE:SKIRT
G1 F600 Z0.2
G1 F2400 E0
G1 X17.391 Y54.757 E0.03331
G1 X18.097 Y54.643 E0.06661
G1 X18.901 Y54.603 E0.10409
G1 X19.08 Y54.6 E0.11243
G1 X190.543 Y54.6 E8.09646
G1 X191.333 Y54.611 E8.13325
G1 X192.046 Y54.661 E8.16653
G1 X192.75 Y54.79 E8.19986
G1 X193.434 Y54.998 E8.23315
G1 X194.091 Y55.28 E8.26644
G1 X194.713 Y55.634 E8.29977
G1 X195.291 Y56.055 E8.33306
G1 X195.819 Y56.538 E8.36638
G1 X196.289 Y57.076 E8.39965
G1 X196.697 Y57.664 E8.43297
G1 X197.036 Y58.294 E8.46629
G1 X197.303 Y58.957 E8.49957
G1 X197.494 Y59.647 E8.53291
G1 X197.607 Y60.353 E8.5662
G1 X197.647 Y61.15 E8.60336
G1 X197.65 Y61.33 E8.61174
G1 X197.65 Y148.343 E12.66343
G1 X197.641 Y149.07 E12.69728
G1 X197.592 Y149.784 E12.73061
G1 X197.464 Y150.488 E12.76393
G1 X197.258 Y151.173 E12.79723
G1 X196.977 Y151.83 E12.83051
G1 X196.624 Y152.453 E12.86385
G1 X196.204 Y153.032 E12.89716
G1 X195.722 Y153.56 E12.93045
G1 X195.185 Y154.032 E12.96374
G1 X194.597 Y154.44 E12.99706
G1 X193.968 Y154.781 E13.03038
G1 X193.305 Y155.049 E13.06368
G1 X192.616 Y155.241 E13.09698
G1 X191.91 Y155.356 E13.13029
G1 X191.099 Y155.397 E13.1681
G1 X190.92 Y155.4 E13.17644
G1 X19.374 Y155.399 E21.16434
G1 X18.676 Y155.39 E21.19684
G1 X17.963 Y155.341 E21.23012
G1 X17.259 Y155.213 E21.26344
G1 X16.574 Y155.007 E21.29675
G1 X15.917 Y154.725 E21.33004
G1 X15.295 Y154.372 E21.36334
G1 X14.716 Y153.952 E21.39665
G1 X14.187 Y153.47 E21.42997
G1 X13.716 Y152.932 E21.46327
G1 X13.308 Y152.345 E21.49656
G1 X12.968 Y151.715 E21.52989
G1 X12.7 Y151.052 E21.56319
G1 X12.508 Y150.363 E21.5965
G1 X12.394 Y149.657 E21.6298
G1 X12.352 Y148.831 E21.66831
G1 X12.35 Y148.658 E21.67636
G1 X12.351 Y61.587 E25.73075
G1 X12.36 Y60.922 E25.76172
G1 X12.409 Y60.209 E25.795
G1 X12.538 Y59.505 E25.82833
G1 X12.745 Y58.821 E25.8616
G1 X13.027 Y58.163 E25.89494
G1 X13.38 Y57.541 E25.92824
G1 X13.8 Y56.963 E25.96151
G1 X14.283 Y56.435 E25.99483
G1 X14.821 Y55.964 E26.02813
G1 X15.409 Y55.556 E26.06145
G1 X16.038 Y55.216 E26.09475
G1 X16.702 Y54.949 E26.12807
M204 S3000
M205 X10 Y10
G0 F3000 X17.203 Y55.38
M204 S1800
M205 X8 Y8
G1 F2400 X17.871 Y55.237 E26.15988
G1 X18.595 Y55.171 E26.19373
G1 X19.08 Y55.16 E26.21632
G1 X190.543 Y55.16 E34.20036
G1 X191.325 Y55.171 E34.23677
G1 X192.006 Y55.22 E34.26857
G1 X192.677 Y55.349 E34.30038
G1 X193.328 Y55.556 E34.33219
G1 X193.951 Y55.837 E34.36402
G1 X194.537 Y56.189 E34.39585
G1 X195.077 Y56.607 E34.42764
G1 X195.565 Y57.085 E34.45945
G1 X195.994 Y57.617 E34.49127
G1 X196.358 Y58.195 E34.52308
G1 X196.652 Y58.812 E34.55491
G1 X196.871 Y59.459 E34.58671
G1 X197.014 Y60.127 E34.61852
G1 X197.079 Y60.846 E34.65214
G1 X197.09 Y61.33 E34.67468
G1 X197.09 Y148.336 E38.72604
G1 X197.081 Y149.063 E38.7599
G1 X197.032 Y149.745 E38.79174
G1 X196.904 Y150.416 E38.82355
G1 X196.699 Y151.068 E38.85537
G1 X196.419 Y151.691 E38.88718
G1 X196.069 Y152.277 E38.91896
G1 X195.652 Y152.819 E38.9508
G1 X195.175 Y153.308 E38.98261
G1 X194.644 Y153.737 E39.0144
G1 X194.066 Y154.102 E39.04623
G1 X193.45 Y154.397 E39.07803
G1 X192.803 Y154.618 E39.10987
G1 X192.135 Y154.762 E39.14169
G1 X191.405 Y154.829 E39.17582
G1 X190.92 Y154.84 E39.19841
G1 X19.382 Y154.84 E47.18594
G1 X18.684 Y154.831 E47.21844
G1 X18.002 Y154.782 E47.25028
G1 X17.331 Y154.654 E47.28209
G1 X16.68 Y154.448 E47.31389
G1 X16.056 Y154.168 E47.34573
G1 X15.47 Y153.817 E47.37754
G1 X14.929 Y153.4 E47.40935
G1 X14.44 Y152.922 E47.44119
G1 X14.011 Y152.391 E47.47297
G1 X13.646 Y151.813 E47.50481
G1 X13.352 Y151.197 E47.53659
G1 X13.131 Y150.55 E47.56842
G1 X12.987 Y149.882 E47.60024
G1 X12.921 Y149.149 E47.63451
G1 X12.91 Y148.658 E47.65738
G1 X12.911 Y61.595 E51.7114
G1 X12.92 Y60.93 E51.74237
G1 X12.969 Y60.249 E51.77416
G1 X13.097 Y59.577 E51.80601
G1 X13.303 Y58.926 E51.83781
G1 X13.584 Y58.303 E51.86963
G1 X13.935 Y57.717 E51.90144
G1 X14.353 Y57.176 E51.93327
G1 X14.83 Y56.688 E51.96505
G1 X15.362 Y56.259 E51.99687
G1 X15.94 Y55.894 E52.0287
G1 X16.557 Y55.6 E52.06053
G1 X17.203 Y55.38 E52.09231
M204 S3000
M205 X10 Y10
G0 F3000 X17.067 Y56.007
M204 S1800
M205 X8 Y8
G1 F2400 X17.694 Y55.837 E52.12256
G1 X18.611 Y55.731 E52.16554
G1 X19.08 Y55.72 E52.18738
G1 X190.543 Y55.72 E60.17142
G1 X191.317 Y55.731 E60.20746
G1 X191.964 Y55.78 E60.23768
G1 X192.601 Y55.908 E60.26793
G1 X193.217 Y56.114 E60.29818
G1 X193.804 Y56.394 E60.32846
G1 X194.351 Y56.743 E60.35867
G1 X194.852 Y57.157 E60.38894
G1 X195.297 Y57.63 E60.41918
G1 X195.682 Y58.154 E60.44945
G1 X195.999 Y58.721 E60.4797
G1 X196.244 Y59.322 E60.50992
G1 X196.413 Y59.949 E60.54016
G1 X196.519 Y60.862 E60.58296
G1 X196.53 Y61.33 E60.60476
G1 X196.53 Y148.329 E64.6558
G1 X196.521 Y149.056 E64.68965
G1 X196.473 Y149.704 E64.71991
G1 X196.345 Y150.341 E64.75016
G1 X196.141 Y150.958 E64.78042
G1 X195.862 Y151.545 E64.81068
G1 X195.514 Y152.093 E64.84091
G1 X195.101 Y152.594 E64.87114
G1 X194.629 Y153.041 E64.90141
G1 X194.106 Y153.426 E64.93165
G1 X193.54 Y153.744 E64.96188
G1 X192.938 Y153.991 E64.99218
G1 X192.312 Y154.161 E65.02239
G1 X191.389 Y154.269 E65.06566
G1 X190.92 Y154.28 E65.08751
G1 X19.389 Y154.28 E73.07471
G1 X18.691 Y154.271 E73.10721
G1 X18.043 Y154.222 E73.13747
G1 X17.406 Y154.095 E73.16772
G1 X16.79 Y153.89 E73.19795
G1 X16.203 Y153.611 E73.22821
G1 X15.655 Y153.262 E73.25846
G1 X15.154 Y152.849 E73.2887
G1 X14.707 Y152.377 E73.31897
G1 X14.322 Y151.854 E73.34921
G1 X14.004 Y151.287 E73.37948
G1 X13.758 Y150.686 E73.40972
G1 X13.588 Y150.059 E73.43997
G1 X13.481 Y149.134 E73.48333
G1 X13.47 Y148.658 E73.5055
G1 X13.47 Y61.603 E77.55914
G1 X13.479 Y60.938 E77.59011
G1 X13.528 Y60.29 E77.62037
G1 X13.656 Y59.653 E77.65062
G1 X13.861 Y59.036 E77.6809
G1 X14.141 Y58.45 E77.71114
G1 X14.49 Y57.902 E77.74139
G1 X14.904 Y57.401 E77.77165
G1 X15.376 Y56.955 E77.80189
G1 X15.899 Y56.571 E77.83211
G1 X16.466 Y56.253 E77.86238
G1 X17.067 Y56.007 E77.89261
M204 S3000
M205 X10 Y10
G1 F2400 E71.89261
G1 F600 Z0.275
G0 F3000 X81.202 Y101.374 Z0.275
M204 S1800
M205 X8 Y8
;TYPE:SUPPORT-INTERFACE
G1 F600 Z0.2
G1 F2400 E77.89261
G1 F1500 X81.303 Y101.249 E77.9001
G1 X81.443 Y101.126 E77.90878
G1 X81.828 Y100.906 E77.92942
G1 X81.891 Y100.888 E77.93247
G1 X81.861 Y100.907 E77.93413
G1 X81.581 Y101.642 E77.97075
G1 X81.56 Y102.505 E78.01095
G1 X81.56 Y104.103 E78.08536
G1 X82.036 Y104.337 E78.11006
G1 X81.652 Y104.848 E78.13982
G1 X81.561 Y105.716 E78.18046
G1 X81.56 Y107.604 E78.26837
G1 X81.594 Y108.253 E78.29863
G1 X81.75 Y108.86 E78.32782
G1 X81.985 Y109.139 E78.3448
G1 X81.758 Y109.074 E78.3558
G1 X81.589 Y108.988 E78.36463
G1 X81.427 Y108.873 E78.37388
G1 X81.178 Y108.599 E78.39112
G1 X81.007 Y108.266 E78.40855
G1 X80.919 Y107.889 E78.42658
G1 X80.88 Y107.14 E78.4615
G1 X80.869 Y106.53 E78.48991
G1 X80.865 Y105.789 E78.52441
G1 X80.865 Y104.407 E78.58876
G1 X80.868 Y103.602 E78.62625
G1 X80.88 Y102.889 E78.65945
G1 X80.919 Y102.109 E78.69582
G1 X81.001 Y101.748 E78.71306
G1 X81.202 Y101.374 E78.73283
M204 S3000
M205 X10 Y10
G1 F2400 E72.73283
G0 F3000 X83.969 Y100.837
M204 S1800
M205 X8 Y8
G1 F2400 E78.73283
G1 F1500 X84.08 Y100.859 E78.7381
G1 X84.297 Y100.948 E78.74902
G1 X84.497 Y101.067 E78.75985
G1 X84.637 Y101.184 E78.76835
G1 X84.762 Y101.332 E78.77737
G1 X84.836 Y101.462 E78.78434
G1 X84.928 Y101.756 E78.79868
G1 X84.334 Y101.756 E78.82634
G1 X84.322 Y101.482 E78.83911
G1 X83.984 Y100.845 E78.87269
G1 X83.969 Y100.837 E78.87348
M204 S3000
M205 X10 Y10
G1 F2400 E72.87348
G0 F3000 X83.783 Y104.227
M204 S1800
M205 X8 Y8
G1 F2400 E78.87348
G1 F1500 X83.942 Y104.213 E78.88091
G1 X84.338 Y104.271 E78.89955
G1 X84.466 Y104.325 E78.90602
G1 X84.782 Y104.547 E78.924
G1 X84.834 Y104.606 E78.92766
G1 X84.949 Y104.844 E78.93997
G1 X85.025 Y105.272 E78.96021
G1 X85.056 Y105.973 E78.99289
G1 X85.056 Y106.749 E79.02902
G1 X85.049 Y107.258 E79.05272
G1 X85.01 Y107.97 E79.08593
G1 X84.95 Y108.322 E79.10255
G1 X84.895 Y108.454 E79.10921
G1 X84.729 Y108.716 E79.12365
G1 X84.51 Y108.92 E79.13759
G1 X84.152 Y109.11 E79.15646
G1 X83.855 Y109.191 E79.1708
G1 X83.988 Y109.107 E79.17812
G1 X84.3 Y108.426 E79.213
G1 X84.361 Y107.7 E79.24693
G1 X84.361 Y105.731 E79.33861
G1 X84.324 Y105.168 E79.36488
G1 X84.085 Y104.484 E79.39862
G1 X83.783 Y104.227 E79.41709
M204 S3000
M205 X10 Y10
G1 F2400 E73.41709
G1 F600 Z0.275
G0 F3000 X87.981 Y101.454 Z0.275
M204 S1800
M205 X8 Y8
G1 F600 Z0.2
G1 F2400 E79.41709
G1 F1500 X88.099 Y101.285 E79.42668
G1 X88.246 Y101.143 E79.4362
G1 X88.447 Y101.004 E79.44758
G1 X88.701 Y100.881 E79.46072
G1 X88.772 Y100.859 E79.46418
G1 X88.646 Y100.95 E79.47142
G1 X88.435 Y101.827 E79.51342
G1 X88.41 Y102.532 E79.54627
G1 X88.41 Y107.434 E79.77453
G1 X88.417 Y107.882 E79.79539
G1 X88.548 Y108.936 E79.84485
G1 X88.789 Y109.15 E79.85986
G1 X88.718 Y109.133 E79.86326
G1 X88.37 Y108.956 E79.88144
G1 X88.155 Y108.755 E79.89514
G1 X87.96 Y108.463 E79.91149
G1 X87.826 Y108.136 E79.92795
G1 X87.745 Y107.657 E79.95057
G1 X87.715 Y106.88 E79.98677
G1 X87.715 Y103.409 E80.1484
G1 X87.73 Y102.767 E80.1783
G1 X87.768 Y102.291 E80.20054
G1 X87.915 Y101.599 E80.23348
G1 X87.981 Y101.454 E80.2409
M204 S3000
M205 X10 Y10
G1 F2400 E74.2409
G0 F3000 X90.782 Y100.913
M204 S1800
M205 X8 Y8
G1 F2400 E80.2409
G1 F1500 X90.825 Y100.927 E80.243
G1 X91.213 Y101.145 E80.26372
G1 X91.443 Y101.365 E80.27854
G1 X91.602 Y101.626 E80.29278
G1 X91.711 Y101.947 E80.30856
G1 X91.747 Y102.163 E80.31876
G1 X91.794 Y102.87 E80.35175
G1 X91.801 Y103.383 E80.37564
G1 X91.8 Y106.736 E80.53177
G1 X91.766 Y107.666 E80.5751
G1 X91.7 Y108.154 E80.59803
G1 X91.585 Y108.456 E80.61308
G1 X91.386 Y108.745 E80.62942
G1 X91.118 Y108.987 E80.64623
G1 X90.808 Y109.147 E80.66248
G1 X90.684 Y109.178 E80.66843
G1 X90.873 Y109.031 E80.67958
G1 X91.082 Y108.191 E80.71989
G1 X91.106 Y107.511 E80.75157
G1 X91.106 Y102.533 E80.98337
G1 X91.098 Y102.1 E81.00353
G1 X90.986 Y101.11 E81.04992
G1 X90.782 Y100.913 E81.06313
M204 S3000
M205 X10 Y10
G1 F2400 E75.06313
G0 F3000 X94.163 Y100.9
M204 S1800
M205 X8 Y8
G1 F2400 E81.06313
G1 F1500 X94.847 Y100.9 E81.09498
G1 X95.14 Y104.622 E81.26883
G1 X95.842 Y104.633 E81.30152
G1 X95.851 Y104.747 E81.30684
G1 X96.584 Y104.755 E81.34098
G1 X96.595 Y104.645 E81.34613
G1 X97.284 Y104.656 E81.37821
G1 X97.581 Y102.042 E81.50071
G1 X97.729 Y100.9 E81.55433
G1 X98.82 Y100.9 E81.60514
G1 X98.864 Y101.404 E81.62869
G1 X99.025 Y103.364 E81.72027
G1 X99.122 Y104.672 E81.78134
G1 X99.825 Y104.689 E81.81408
G1 X99.844 Y104.944 E81.82599
G1 X100.584 Y104.948 E81.86045
G1 X100.604 Y104.706 E81.87176
G1 X101.259 Y104.722 E81.90227
G1 X101.73 Y100.9 E82.08158
G1 X102.451 Y100.9 E82.11515
G1 X101.501 Y109.1 E82.49953
G1 X99.808 Y109.1 E82.57837
G1 X99.725 Y108.644 E82.59995
G1 X99.724 Y108.644 E82.59999
G1 X99.524 Y107.393 E82.65899
G1 X99.29 Y105.717 E82.73778
G1 X97.238 Y105.717 E82.83333
G1 X96.912 Y108.051 E82.94307
G1 X96.763 Y109.1 E82.99241
G1 X95.117 Y109.1 E83.06905
G1 X94.163 Y100.9 E83.45345
M204 S3000
M205 X10 Y10
G1 F2400 E77.45345
G1 F600 Z0.275
G0 F3000 X107.103 Y100.9 Z0.275
M204 S1800
M205 X8 Y8
G1 F600 Z0.2
G1 F2400 E83.45345
G1 F1500 X109.707 Y100.9 E83.57471
G1 X109.707 Y101.101 E83.58407
G1 X108.595 Y101.101 E83.63584
G1 X107.904 Y101.792 E83.68135
G1 X107.904 Y104.106 E83.7891
G1 X108.595 Y104.797 E83.8346
G1 X109.51 Y104.797 E83.87721
G1 X109.51 Y104.9 E83.882
G1 X108.595 Y104.9 E83.92461
G1 X107.904 Y105.591 E83.97011
G1 X107.904 Y109.1 E84.13351
G1 X107.103 Y109.1 E84.17081
G1 X107.103 Y100.9 E84.55263
M204 S3000
M205 X10 Y10
G1 F2400 E78.55263
G1 F600 Z0.275
G0 F3000 X112.137 Y100.9 Z0.275
M204 S1800
M205 X8 Y8
G1 F600 Z0.2
G1 F2400 E84.55263
G1 F1500 X113.83 Y100.9 E84.63146
G1 X113.878 Y101.211 E84.64612
G1 X114.02 Y102.251 E84.69499
G1 X114.243 Y103.789 E84.76736
G1 X116.303 Y103.773 E84.86328
G1 X116.671 Y100.9 E84.99816
G1 X118.361 Y100.9 E85.07685
G1 X118.361 Y109.1 E85.45868
G1 X117.888 Y109.1 E85.4807
G1 X117.887 Y106.329 E85.60973
G1 X117.186 Y106.282 E85.64244
G1 X117.186 Y105.862 E85.662
G1 X116.44 Y105.812 E85.69682
G1 X116.384 Y106.229 E85.71641
G1 X115.684 Y106.182 E85.74908
G1 X115.292 Y109.1 E85.88617
G1 X115.247 Y109.1 E85.88827
G1 X114.803 Y106.023 E86.03303
G1 X114.101 Y106.074 E86.0658
G1 X114.054 Y105.746 E86.08123
G1 X113.312 Y105.8 E86.11587
G1 X113.312 Y106.129 E86.13119
G1 X112.612 Y106.179 E86.16387
G1 X112.61 Y109.1 E86.29988
G1 X112.137 Y109.1 E86.32191
G1 X112.137 Y100.9 E86.70374
M204 S3000
M205 X10 Y10
G1 F2400 E80.70374
G1 F600 Z0.275
G0 F3000 X122.99 Y100.9 Z0.275
M204 S1800
M205 X8 Y8
G1 F600 Z0.2
G1 F2400 E86.70374
G1 F1500 X126.872 Y100.9 E86.8845
G1 X126.872 Y101.101 E86.89386
G1 X126.019 Y101.101 E86.93358
G1 X125.328 Y101.792 E86.97908
G1 X125.328 Y109.1 E87.31937
G1 X124.528 Y109.1 E87.35662
G1 X124.528 Y101.792 E87.69691
G1 X123.837 Y101.101 E87.74242
G1 X122.99 Y101.101 E87.78186
G1 X122.99 Y100.9 E87.79122
M204 S3000
M205 X10 Y10
G1 F2400 E81.79122
G1 F600 Z0.275
G0 F3000 X129.265 Y100.9 Z0.275
M204 S1800
M205 X8 Y8
G1 F600 Z0.2
G1 F2400 E87.79122
G1 F1500 X130.195 Y100.9 E87.83452
G1 X130.755 Y100.906 E87.8606
G1 X130.066 Y101.491 E87.90269
G1 X130.066 Y104.238 E88.0306
G1 X130.734 Y104.715 E88.06882
G1 X130.066 Y105.207 E88.10745
G1 X130.066 Y109.1 E88.28872
G1 X129.265 Y109.1 E88.32602
G1 X129.265 Y100.9 E88.70785
M204 S3000
M205 X10 Y10
G0 F3000 X131.857 Y100.954
M204 S1800
M205 X8 Y8
G1 F1500 X132.51 Y101.028 E88.73845
G1 X132.652 Y101.073 E88.74539
G1 X132.79 Y101.148 E88.7527
G1 X132.894 Y101.235 E88.75901
G1 X133.011 Y101.376 E88.76754
G1 X133.105 Y101.55 E88.77675
G1 X133.189 Y101.824 E88.7901
G1 X133.249 Y102.216 E88.80856
G1 X133.27 Y102.715 E88.83182
G1 X133.21 Y103.537 E88.8702
G1 X133.145 Y103.742 E88.88021
G1 X132.475 Y104.154 E88.91684
G1 X132.427 Y105.244 E88.96764
G1 X132.051 Y104.817 E88.99413
G1 X131.72 Y104.715 E89.01026
G1 X132.009 Y104.614 E89.02452
G1 X132.371 Y104.282 E89.04739
G1 X132.589 Y103.786 E89.07262
G1 X132.656 Y103.084 E89.10545
G1 X132.656 Y102.439 E89.13549
G1 X132.595 Y101.862 E89.1625
G1 X132.294 Y101.262 E89.19376
G1 X131.857 Y100.954 E89.21866
M204 S3000
M205 X10 Y10
G1 F2400 E83.21866
G1 F600 Z0.275
G0 F3000 X135.776 Y100.9 Z0.275
M204 S1800
M205 X8 Y8
G1 F600 Z0.2
G1 F2400 E89.21866
G1 F1500 X136.431 Y100.9 E89.24916
G1 X136.471 Y101.105 E89.25888
G1 X136.763 Y102.487 E89.32465
G1 X138.685 Y102.478 E89.41415
G1 X139.005 Y100.9 E89.48912
G1 X139.345 Y100.9 E89.50496
G1 X138.639 Y104.312 E89.6672
G1 X138.648 Y104.576 E89.6795
G1 X139.764 Y109.1 E89.89647
G1 X139.193 Y109.1 E89.92306
G1 X139.168 Y109.004 E89.92768
G1 X138.967 Y108.134 E89.96926
G1 X138.721 Y106.914 E90.02721
G1 X136.74 Y106.964 E90.11948
G1 X136.42 Y109.1 E90.22005
G1 X135.728 Y109.1 E90.25227
G1 X136.506 Y104.509 E90.4691
