;FLAVOR:Marlin
;TIME:12359
;Filament used: 10.2272m
;Layer height: 0.2
;MINX:10.77
;MINY:86.005
;MINZ:0.2
;MAXX:199.226
;MAXY:123.995
;MAXZ:46.8
;Generated with Cura_SteamEngine 4.8.0
M140 S60
M105
M190 S60
M104 S200
M105
M109 S200
M82 ;absolute extrusion mode
G21 ;metric values
G90 ;absolute positioning
M82 ;set extruder to absolute mode
M107 ;start with the fan off
G28 X0 Y0 ;move X/Y to min endstops
G28 Z0 ;move Z to min endstops
G1 Z15.0 F100 ;move the platform down 15mm
G92 E0 ;zero the extruded length
G1 F200 E3 ;extrude 3mm of feed stock
G92 E0 ;zero the extruded length again
G1 F100
G0 Y20 F100
M117 Printing...
G5
G92 E0
G92 E0
G1 F2400 E-6
;LAYER_COUNT:234
;LAYER:0
M106 S255
M204 S3000
M205 X10 Y10
G1 F600 Z0.275
G0 F3000 X16.197 Y86.223 Z0.275
M204 S1800
M205 X8 Y8
;TYPE:SKIRT
G1 F600 Z0.2
G1 F2400 E0
G1 X16.839 Y86.106 E0.03039
G1 X17.117 Y86.07 E0.04344
G1 X17.84 Y86.018 E0.07719
G1 X18.714 Y86.005 E0.11789
G1 X191.343 Y86.005 E8.15622
G1 X192.021 Y86.014 E8.1878
G1 X192.841 Y86.063 E8.22605
G1 X193.55 Y86.157 E8.25935
G1 X194.244 Y86.329 E8.29264
G1 X194.915 Y86.578 E8.32597
G1 X195.51 Y86.87 E8.35683
G1 X196.127 Y87.233 E8.39017
G1 X196.698 Y87.662 E8.42342
G1 X197.283 Y88.222 E8.46113
G1 X197.446 Y88.399 E8.47234
G1 X197.9 Y88.951 E8.50562
G1 X198.29 Y89.551 E8.53894
G1 X198.611 Y90.19 E8.57224
G1 X198.922 Y91.087 E8.61644
G1 X198.983 Y91.316 E8.62748
G1 X199.129 Y92.016 E8.66077
G1 X199.197 Y92.811 E8.69793
G1 X199.222 Y93.897 E8.74851
G1 X199.226 Y94.729 E8.78725
G1 X199.224 Y95.637 E8.82953
G1 X199.196 Y98.534 E8.96443
G1 X199.191 Y99.464 E9.00774
G1 X199.192 Y114.171 E9.69256
G1 X199.218 Y116.531 E9.80246
G1 X199.204 Y117.205 E9.83385
G1 X199.14 Y117.917 E9.86714
G1 X198.998 Y118.618 E9.90044
G1 X198.838 Y119.137 E9.92573
G1 X198.632 Y119.69 E9.95321
G1 X198.335 Y120.341 E9.98653
G1 X197.967 Y120.955 E10.01986
G1 X197.534 Y121.524 E10.05315
G1 X197.039 Y122.041 E10.08648
G1 X196.49 Y122.499 E10.11977
G1 X195.894 Y122.893 E10.15304
G1 X195.15 Y123.264 E10.19175
G1 X194.703 Y123.452 E10.21433
G1 X194.029 Y123.692 E10.24765
G1 X193.089 Y123.894 E10.29242
G1 X192.833 Y123.929 E10.30445
G1 X192.048 Y123.987 E10.3411
G1 X191.42 Y123.995 E10.37035
G1 X18.564 Y123.994 E18.41925
G1 X17.873 Y123.984 E18.45143
G1 X17.16 Y123.934 E18.48471
G1 X16.51 Y123.824 E18.5154
G1 X16.21 Y123.762 E18.52967
G1 X15.52 Y123.573 E18.56298
G1 X14.856 Y123.308 E18.59627
G1 X14.022 Y122.84 E18.6408
G1 X13.841 Y122.72 E18.65092
G1 X13.267 Y122.292 E18.68426
G1 X12.746 Y121.803 E18.71753
G1 X12.282 Y121.259 E18.75082
G1 X11.881 Y120.666 E18.78415
G1 X11.58 Y120.098 E18.81409
G1 X11.405 Y119.724 E18.83331
G1 X11.139 Y119.061 E18.86658
G1 X10.948 Y118.371 E18.89992
G1 X10.835 Y117.665 E18.93321
G1 X10.805 Y117.203 E18.95477
G1 X10.779 Y116.331 E18.99539
G1 X10.776 Y116.141 E19.00424
G1 X10.774 Y98.896 E19.80724
G1 X10.77 Y95.704 E19.95587
G1 X10.771 Y95.025 E19.98749
G1 X10.78 Y93.584 E20.05459
G1 X10.794 Y92.875 E20.08761
G1 X10.848 Y92.161 E20.12095
G1 X10.959 Y91.529 E20.15083
G1 X11.134 Y90.835 E20.18415
G1 X11.385 Y90.165 E20.21747
G1 X11.709 Y89.528 E20.25075
G1 X12.102 Y88.93 E20.28407
G1 X12.559 Y88.38 E20.31737
G1 X12.924 Y88.019 E20.34127
G1 X13.123 Y87.837 E20.35383
G1 X13.677 Y87.385 E20.38712
G1 X14.278 Y86.997 E20.42043
G1 X14.851 Y86.703 E20.45042
G1 X15.511 Y86.425 E20.48377
G1 X16.197 Y86.223 E20.51707
M204 S3000
M205 X10 Y10
G0 F3000 X16.384 Y86.754
M204 S1800
M205 X8 Y8
G1 F2400 X16.911 Y86.661 E20.54198
G1 X17.189 Y86.625 E20.55504
G1 X17.849 Y86.578 E20.58585
G1 X18.714 Y86.565 E20.62613
G1 X191.343 Y86.565 E28.66446
G1 X192.014 Y86.574 E28.69571
G1 X192.799 Y86.622 E28.73233
G1 X193.476 Y86.713 E28.76414
G1 X194.137 Y86.883 E28.79592
G1 X195.036 Y87.255 E28.84122
G1 X195.253 Y87.367 E28.85259
G1 X195.841 Y87.716 E28.88443
G1 X196.384 Y88.13 E28.91622
G1 X196.871 Y88.601 E28.94777
G1 X197.034 Y88.778 E28.95898
G1 X197.467 Y89.307 E28.99081
G1 X197.834 Y89.882 E29.02257
G1 X198.133 Y90.497 E29.05441
G1 X198.381 Y91.231 E29.09049
G1 X198.442 Y91.46 E29.10153
G1 X198.579 Y92.129 E29.13332
G1 X198.637 Y92.824 E29.1658
G1 X198.662 Y93.9 E29.21591
G1 X198.666 Y94.728 E29.25447
G1 X198.664 Y95.631 E29.29652
G1 X198.636 Y98.528 E29.43142
G1 X198.631 Y99.461 E29.47487
G1 X198.632 Y114.178 E30.16015
G1 X198.658 Y116.528 E30.26958
G1 X198.644 Y117.187 E30.30028
G1 X198.582 Y117.867 E30.33207
G1 X198.44 Y118.536 E30.36392
G1 X198.25 Y119.119 E30.39247
G1 X198.11 Y119.487 E30.4108
G1 X197.825 Y120.108 E30.44262
G1 X197.469 Y120.691 E30.47443
G1 X197.048 Y121.229 E30.50624
G1 X196.567 Y121.714 E30.53804
G1 X196.032 Y122.139 E30.56986
G1 X195.451 Y122.5 E30.60171
G1 X194.933 Y122.748 E30.62845
G1 X194.486 Y122.936 E30.65103
G1 X193.842 Y123.164 E30.68284
G1 X193.013 Y123.339 E30.7223
G1 X192.757 Y123.374 E30.73433
G1 X192.041 Y123.428 E30.76776
G1 X191.495 Y123.435 E30.79319
G1 X18.572 Y123.434 E38.84521
G1 X17.881 Y123.424 E38.87739
G1 X16.904 Y123.328 E38.9231
G1 X16.328 Y123.215 E38.95043
G1 X15.669 Y123.032 E38.98228
G1 X15.037 Y122.774 E39.01406
G1 X14.331 Y122.373 E39.05187
G1 X14.15 Y122.253 E39.06198
G1 X13.604 Y121.843 E39.09378
G1 X13.109 Y121.372 E39.12559
G1 X12.673 Y120.846 E39.15741
G1 X12.301 Y120.273 E39.18922
G1 X11.912 Y119.487 E39.23005
G1 X11.66 Y118.852 E39.26186
G1 X11.483 Y118.192 E39.29368
G1 X11.365 Y117.186 E39.34085
G1 X11.339 Y116.314 E39.38147
G1 X11.336 Y116.141 E39.38953
G1 X11.334 Y98.896 E40.19253
G1 X11.33 Y95.705 E40.34111
G1 X11.331 Y95.028 E40.37264
G1 X11.34 Y93.595 E40.43936
G1 X11.354 Y92.886 E40.47238
G1 X11.459 Y91.894 E40.51883
G1 X11.509 Y91.635 E40.53112
G1 X11.677 Y90.973 E40.56292
G1 X11.922 Y90.335 E40.59474
G1 X12.24 Y89.73 E40.62657
G1 X12.626 Y89.166 E40.65839
G1 X13.302 Y88.433 E40.70482
G1 X13.501 Y88.251 E40.71738
G1 X14.031 Y87.82 E40.74919
G1 X14.878 Y87.313 E40.79516
G1 X15.097 Y87.206 E40.80651
G1 X15.728 Y86.942 E40.83836
G1 X16.384 Y86.754 E40.87013
M204 S3000
M205 X10 Y10
G0 F3000 X16.569 Y87.287
M204 S1800
M205 X8 Y8
G1 F2400 X17.261 Y87.181 E40.90273
G1 X17.857 Y87.138 E40.93055
G1 X18.714 Y87.125 E40.97046
G1 X191.414 Y87.125 E49.0121
G1 X192.006 Y87.133 E49.03967
G1 X192.756 Y87.18 E49.07466
G1 X193.4 Y87.269 E49.10493
G1 X194.028 Y87.436 E49.13519
G1 X194.78 Y87.753 E49.17319
G1 X194.997 Y87.865 E49.18456
G1 X195.554 Y88.198 E49.21478
G1 X196.067 Y88.597 E49.24504
G1 X196.459 Y88.98 E49.27056
G1 X196.622 Y89.157 E49.28176
G1 X197.032 Y89.661 E49.31202
G1 X197.377 Y90.212 E49.34229
G1 X197.651 Y90.801 E49.37254
G1 X197.84 Y91.375 E49.40068
G1 X197.901 Y91.604 E49.41171
G1 X198.029 Y92.241 E49.44197
G1 X198.078 Y92.837 E49.46981
G1 X198.102 Y93.903 E49.51946
G1 X198.106 Y94.726 E49.55779
G1 X198.104 Y95.626 E49.59969
G1 X198.076 Y98.523 E49.7346
G1 X198.071 Y99.459 E49.77818
G1 X198.072 Y114.184 E50.46384
G1 X198.098 Y116.525 E50.57285
G1 X198.084 Y117.168 E50.6028
G1 X198.023 Y117.815 E50.63306
G1 X197.883 Y118.45 E50.66334
G1 X197.723 Y118.932 E50.68699
G1 X197.588 Y119.283 E50.7045
G1 X197.315 Y119.873 E50.73477
G1 X196.972 Y120.425 E50.76503
G1 X196.564 Y120.93 E50.79526
G1 X196.097 Y121.381 E50.82549
G1 X195.578 Y121.772 E50.85575
G1 X195.014 Y122.096 E50.88604
G1 X194.269 Y122.42 E50.92387
G1 X193.656 Y122.635 E50.95411
G1 X192.937 Y122.784 E50.9883
G1 X192.681 Y122.819 E51.00034
G1 X192.034 Y122.868 E51.03055
G1 X191.488 Y122.875 E51.05598
G1 X18.581 Y122.874 E59.10725
G1 X17.89 Y122.864 E59.13943
G1 X17.006 Y122.777 E59.18079
G1 X16.446 Y122.667 E59.20737
G1 X15.82 Y122.492 E59.23763
G1 X15.221 Y122.241 E59.26787
G1 X14.64 Y121.907 E59.29908
G1 X14.459 Y121.787 E59.30919
G1 X13.941 Y121.395 E59.33944
G1 X13.475 Y120.943 E59.36967
G1 X13.068 Y120.437 E59.39991
G1 X12.595 Y119.624 E59.4437
G1 X12.42 Y119.25 E59.46293
G1 X12.181 Y118.646 E59.49318
G1 X12.018 Y118.017 E59.52343
G1 X11.924 Y117.169 E59.56316
G1 X11.898 Y116.297 E59.60378
G1 X11.896 Y116.141 E59.61105
G1 X11.894 Y98.896 E60.41405
G1 X11.89 Y95.706 E60.56259
G1 X11.891 Y95.032 E60.59397
G1 X11.9 Y93.606 E60.66037
G1 X11.914 Y92.897 E60.69339
G1 X12.009 Y92 E60.7354
G1 X12.059 Y91.741 E60.74768
G1 X12.221 Y91.112 E60.77792
G1 X12.459 Y90.508 E60.80815
G1 X12.77 Y89.937 E60.83843
G1 X13.148 Y89.409 E60.86867
G1 X13.68 Y88.846 E60.90473
G1 X13.879 Y88.664 E60.91729
G1 X14.384 Y88.256 E60.94752
G1 X15.124 Y87.816 E60.98761
G1 X15.343 Y87.709 E60.99896
G1 X15.943 Y87.46 E61.02921
G1 X16.569 Y87.287 E61.05945
M204 S3000
M205 X10 Y10
G1 F2400 E55.05945
;MESH:60W-FM-PA_Side1.stl
G0 F3000 X17.655 Y91.778
G0 X17.837 Y93.059
G0 X37.377 Y105.765
M204 S1800
M205 X8 Y8
;TYPE:WALL-INNER
G1 F2400 E61.05945
G1 F1500 X36.47 Y106.142 E61.10519
G1 X35.69 Y106.74 E61.15095
G1 X35.092 Y107.52 E61.19672
G1 X34.715 Y108.427 E61.24246
G1 X34.588 Y109.4 E61.28815
G1 X34.715 Y110.373 E61.33384
G1 X35.092 Y111.28 E61.37958
G1 X35.69 Y112.06 E61.42534
G1 X36.47 Y112.658 E61.47111
G1 X37.377 Y113.035 E61.51684
G1 X38.35 Y113.162 E61.56254
G1 X39.323 Y113.035 E61.60823
G1 X40.23 Y112.658 E61.65396
G1 X41.01 Y112.06 E61.69973
G1 X41.608 Y111.28 E61.7455
G1 X41.985 Y110.373 E61.79123
G1 X42.112 Y109.4 E61.83692
G1 X41.985 Y108.427 E61.88261
G1 X41.608 Y107.52 E61.92835
G1 X41.01 Y106.74 E61.97412
G1 X40.23 Y106.142 E62.01988
G1 X39.323 Y105.765 E62.06562
G1 X38.35 Y105.638 E62.11131
G1 X37.377 Y105.765 E62.157
M204 S3000
M205 X10 Y10
G0 F3000 X48.796 Y105.089
M204 S1800
M205 X8 Y8
G1 F1500 X47.72 Y105.536 E62.21126
G1 X46.795 Y106.245 E62.26553
G1 X46.086 Y107.17 E62.31979
G1 X45.639 Y108.246 E62.37405
G1 X45.488 Y109.4 E62.42824
G1 X45.639 Y110.554 E62.48244
G1 X46.086 Y111.63 E62.53669
G1 X46.795 Y112.555 E62.59096
G1 X47.72 Y113.264 E62.64523
G1 X48.796 Y113.711 E62.69948
G1 X49.95 Y113.862 E62.75368
G1 X51.104 Y113.711 E62.80787
G1 X52.18 Y113.264 E62.86212
G1 X53.105 Y112.555 E62.91639
G1 X53.814 Y111.63 E62.97066
G1 X54.261 Y110.554 E63.02492
G1 X54.412 Y109.4 E63.07911
G1 X54.261 Y108.246 E63.1333
G1 X53.814 Y107.17 E63.18756
G1 X53.105 Y106.245 E63.24182
G1 X52.18 Y105.536 E63.29609
G1 X51.104 Y105.089 E63.35035
G1 X49.95 Y104.938 E63.40454
G1 X48.796 Y105.089 E63.45873
M204 S3000
M205 X10 Y10
G0 F3000 X191.406 Y115.905
M204 S1800
M205 X8 Y8
G1 F1500 X191.407 Y115.906 E63.4588
G1 X191.416 Y116.195 E63.47226
G1 X191.127 Y116.195 E63.48089
G1 X191.126 Y116.195 E63.48094
G1 X18.575 Y116.195 E71.51563
G1 X18.574 Y99 E72.31631
G1 X18.57 Y95.316 E72.48785
G1 X18.579 Y93.805 E72.55821
G1 X191.421 Y93.805 E80.60646
G1 X191.428 Y95.099 E80.66671
G1 X191.391 Y98.993 E80.84804
G1 X191.392 Y115.525 E81.61784
G1 X191.406 Y115.905 E81.63554
M204 S3000
M205 X10 Y10
G0 F3000 X191.952 Y115.515
M204 S1800
M205 X8 Y8
G1 F1500 X191.982 Y116.34 E81.67399
G1 X191.987 Y116.491 E81.68102
G1 X191.982 Y116.742 E81.69271
G1 X191.942 Y116.755 E81.69467
G1 X191.791 Y116.755 E81.7017
G1 X18.034 Y116.755 E89.79255
G1 X18.021 Y116.752 E89.79318
G1 X18.015 Y116.25 E89.81655
G1 X18.014 Y99 E90.61978
G1 X18.01 Y95.313 E90.79147
G1 X18.022 Y93.245 E90.88776
G1 X191.978 Y93.245 E98.98788
G1 X191.988 Y95.104 E99.07445
G1 X191.951 Y98.996 E99.25568
G1 X191.952 Y115.515 E100.02488
M204 S3000
M205 X10 Y10
G0 F3000 X49.95 Y105.665
G0 X48.981 Y105.793
G0 X47.194 Y106.644
M204 S1800
M205 X8 Y8
G1 F1500 X46.575 Y107.452 E100.07227
G1 X46.185 Y108.392 E100.11966
G1 X46.053 Y109.4 E100.167
G1 X46.185 Y110.408 E100.21434
G1 X46.575 Y111.348 E100.26172
G1 X47.194 Y112.156 E100.30912
G1 X48.002 Y112.775 E100.35651
G1 X48.942 Y113.165 E100.4039
G1 X49.95 Y113.297 E100.45124
G1 X50.958 Y113.165 E100.49858
G1 X51.898 Y112.775 E100.54597
G1 X52.706 Y112.156 E100.59336
G1 X53.325 Y111.348 E100.64076
G1 X53.715 Y110.408 E100.68814
G1 X53.847 Y109.4 E100.73548
G1 X53.715 Y108.392 E100.78282
G1 X53.325 Y107.452 E100.83021
G1 X52.706 Y106.644 E100.8776
G1 X51.898 Y106.025 E100.925
G1 X50.958 Y105.635 E100.97239
G1 X49.95 Y105.503 E101.01972
G1 X48.942 Y105.635 E101.06706
G1 X48.002 Y106.025 E101.11445
G1 X47.194 Y106.644 E101.16185
M204 S3000
M205 X10 Y10
G0 F3000 X37.523 Y106.311
M204 S1800
M205 X8 Y8
G1 F1500 X36.752 Y106.631 E101.20072
G1 X36.089 Y107.139 E101.23961
G1 X35.581 Y107.802 E101.2785
G1 X35.261 Y108.573 E101.31737
G1 X35.153 Y109.4 E101.35621
G1 X35.261 Y110.227 E101.39504
G1 X35.581 Y110.998 E101.43391
G1 X36.089 Y111.661 E101.4728
G1 X36.752 Y112.169 E101.5117
G1 X37.523 Y112.489 E101.55057
G1 X38.35 Y112.597 E101.5894
G1 X39.177 Y112.489 E101.62824
G1 X39.948 Y112.169 E101.66711
G1 X40.611 Y111.661 E101.706
G1 X41.119 Y110.998 E101.74489
G1 X41.439 Y110.227 E101.78376
G1 X41.547 Y109.4 E101.8226
G1 X41.439 Y108.573 E101.86144
G1 X41.119 Y107.802 E101.90031
G1 X40.611 Y107.139 E101.9392
G1 X39.948 Y106.631 E101.97809
G1 X39.177 Y106.311 E102.01696
G1 X38.35 Y106.203 E102.0558
G1 X37.523 Y106.311 E102.09463
M204 S3000
M205 X10 Y10
G0 F3000 X36.123 Y107.259
G0 X36.488 Y107.538
M204 S1800
M205 X8 Y8
;TYPE:WALL-OUTER
G1 F1500 X36.07 Y108.084 E102.12665
G1 X35.807 Y108.719 E102.15866
G1 X35.718 Y109.4 E102.19064
G1 X35.807 Y110.081 E102.22262
G1 X36.07 Y110.716 E102.25462
G1 X36.488 Y111.262 E102.28664
G1 X37.034 Y111.68 E102.31866
G1 X37.669 Y111.943 E102.35066
G1 X38.35 Y112.032 E102.38264
G1 X39.031 Y111.943 E102.41462
G1 X39.666 Y111.68 E102.44663
G1 X40.212 Y111.262 E102.47864
G1 X40.63 Y110.716 E102.51066
G1 X40.893 Y110.081 E102.54267
G1 X40.982 Y109.4 E102.57465
G1 X40.893 Y108.719 E102.60663
G1 X40.63 Y108.084 E102.63863
G1 X40.212 Y107.538 E102.67065
G1 X39.666 Y107.12 E102.70267
G1 X39.031 Y106.857 E102.73467
G1 X38.35 Y106.768 E102.76665
G1 X37.669 Y106.857 E102.79863
G1 X37.034 Y107.12 E102.83064
G1 X36.488 Y107.538 E102.86266
M204 S3000
M205 X10 Y10
G0 F3000 X36.367 Y107.696
G0 X36.002 Y107.417
G0 X36.836 Y106.77
G0 X38.2 Y106.386
G0 X47.228 Y106.764
G0 X47.593 Y107.043
M204 S1800
M205 X8 Y8
G1 F1500 X47.064 Y107.734 E102.90318
G1 X46.731 Y108.538 E102.9437
G1 X46.618 Y109.4 E102.98418
G1 X46.731 Y110.262 E103.02466
G1 X47.064 Y111.066 E103.06519
G1 X47.593 Y111.757 E103.10571
G1 X48.284 Y112.286 E103.14623
G1 X49.088 Y112.619 E103.18675
G1 X49.95 Y112.732 E103.22723
G1 X50.812 Y112.619 E103.26771
G1 X51.616 Y112.286 E103.30824
G1 X52.307 Y111.757 E103.34876
G1 X52.836 Y111.066 E103.38928
G1 X53.169 Y110.262 E103.4298
G1 X53.282 Y109.4 E103.47028
G1 X53.169 Y108.538 E103.51077
G1 X52.836 Y107.734 E103.55129
G1 X52.307 Y107.043 E103.59181
G1 X51.616 Y106.514 E103.63233
G1 X50.812 Y106.181 E103.67285
G1 X49.95 Y106.068 E103.71334
G1 X49.088 Y106.181 E103.75382
G1 X48.284 Y106.514 E103.79434
G1 X47.593 Y107.043 E103.83486
M204 S3000
M205 X10 Y10
G0 F3000 X47.472 Y107.201
G0 X47.107 Y106.922
G0 X48.086 Y106.164
G0 X48.981 Y105.793
G0 X192.053 Y115.52
G0 X192.512 Y115.505
M204 S1800
M205 X8 Y8
G1 F1500 X192.547 Y116.482 E103.88038
G1 X192.538 Y116.948 E103.90209
G1 X192.454 Y117.172 E103.91323
G1 X192.037 Y117.315 E103.93375
G1 X17.976 Y117.315 E112.03876
G1 X17.648 Y117.248 E112.05435
G1 X17.579 Y117.201 E112.05824
G1 X17.463 Y116.94 E112.07154
G1 X17.455 Y116.25 E112.10367
G1 X17.454 Y99 E112.9069
G1 X17.45 Y95.31 E113.07872
G1 X17.463 Y93.028 E113.18498
G1 X17.491 Y92.881 E113.19195
G1 X17.66 Y92.73 E113.20251
G1 X17.969 Y92.685 E113.21705
G1 X192.035 Y92.685 E121.32229
G1 X192.278 Y92.708 E121.33365
G1 X192.497 Y92.87 E121.34634
G1 X192.537 Y93.035 E121.35424
G1 X192.548 Y95.109 E121.45082
G1 X192.511 Y98.999 E121.63196
G1 X192.512 Y115.505 E122.40055
M204 S3000
M205 X10 Y10
G0 F3000 X192.519 Y115.705
G0 X192.059 Y115.721
G0 X190.846 Y115.645
M204 S1800
M205 X8 Y8
