;FLAVOR:Marlin
;TIME:12562
;Filament used: 10.5723m
;Layer height: 0.2
;MINX:10.774
;MINY:86.005
;MINZ:0.2
;MAXX:199.23
;MAXY:123.995
;MAXZ:49.8
;Generated with Cura_SteamEngine 4.8.0
M140 S60
M105
M190 S60
M104 S200
M105
M109 S200
M82 ;absolute extrusion mode
G21 ;metric values
G90 ;absolute positioning
M82 ;set extruder to absolute mode
M107 ;start with the fan off
G28 X0 Y0 ;move X/Y to min endstops
G28 Z0 ;move Z to min endstops
G1 Z15.0 F100 ;move the platform down 15mm
G92 E0 ;zero the extruded length
G1 F200 E3 ;extrude 3mm of feed stock
G92 E0 ;zero the extruded length again
G1 F100
G0 Y20 F100
M117 Printing...
G5
G92 E0
G92 E0
G1 F2400 E-6
;LAYER_COUNT:249
;LAYER:0
M106 S255
M204 S3000
M205 X10 Y10
G1 F600 Z0.275
G0 F3000 X16.911 Y86.106 Z0.275
M204 S1800
M205 X8 Y8
;TYPE:SKIRT
G1 F600 Z0.2
G1 F2400 E0
G1 X17.167 Y86.071 E0.01203
G1 X17.952 Y86.013 E0.04868
G1 X18.58 Y86.005 E0.07793
G1 X191.343 Y86.005 E8.1225
G1 X192.127 Y86.016 E8.15901
G1 X192.84 Y86.066 E8.19229
G1 X193.49 Y86.176 E8.22299
G1 X193.79 Y86.238 E8.23725
G1 X194.48 Y86.427 E8.27056
G1 X195.144 Y86.692 E8.30385
G1 X195.978 Y87.16 E8.34838
G1 X196.159 Y87.28 E8.3585
G1 X196.733 Y87.708 E8.39184
G1 X197.254 Y88.197 E8.42511
G1 X197.718 Y88.741 E8.4584
G1 X198.119 Y89.334 E8.49174
G1 X198.42 Y89.902 E8.52167
G1 X198.595 Y90.276 E8.5409
G1 X198.861 Y90.939 E8.57416
G1 X199.052 Y91.629 E8.6075
G1 X199.165 Y92.335 E8.64079
G1 X199.195 Y92.8 E8.66249
G1 X199.222 Y93.721 E8.70539
G1 X199.225 Y93.909 E8.71415
G1 X199.226 Y111 E9.50997
G1 X199.23 Y114.296 E9.66345
G1 X199.229 Y114.975 E9.69507
G1 X199.22 Y116.401 E9.76147
G1 X199.206 Y117.122 E9.79505
G1 X199.152 Y117.835 E9.82834
G1 X199.041 Y118.47 E9.85836
G1 X198.866 Y119.164 E9.89169
G1 X198.615 Y119.834 E9.925
G1 X198.291 Y120.471 E9.95828
G1 X197.898 Y121.069 E9.9916
G1 X197.441 Y121.619 E10.0249
G1 X196.916 Y122.128 E10.05895
G1 X196.365 Y122.583 E10.09222
G1 X195.483 Y123.128 E10.1405
G1 X195.25 Y123.247 E10.15268
G1 X194.596 Y123.536 E10.18598
G1 X193.913 Y123.75 E10.2193
G1 X193.161 Y123.894 E10.25496
G1 X192.883 Y123.93 E10.26801
G1 X192.16 Y123.982 E10.30176
G1 X191.286 Y123.995 E10.34246
G1 X18.571 Y123.994 E18.3848
G1 X17.979 Y123.986 E18.41237
G1 X17.159 Y123.937 E18.45062
G1 X16.45 Y123.843 E18.48392
G1 X15.756 Y123.671 E18.51721
G1 X15.085 Y123.422 E18.55054
G1 X14.468 Y123.118 E18.58257
G1 X13.853 Y122.753 E18.61587
G1 X13.282 Y122.321 E18.64921
G1 X12.693 Y121.753 E18.68731
G1 X12.528 Y121.572 E18.69871
G1 X12.077 Y121.017 E18.73201
G1 X11.69 Y120.415 E18.76534
G1 X11.373 Y119.774 E18.79864
G1 X11.057 Y118.845 E18.84433
G1 X11 Y118.622 E18.85505
G1 X10.862 Y117.92 E18.88836
G1 X10.803 Y117.185 E18.9227
G1 X10.778 Y116.076 E18.97435
G1 X10.774 Y115.24 E19.01328
G1 X10.776 Y114.363 E19.05411
G1 X10.804 Y111.466 E19.18902
G1 X10.809 Y110.536 E19.23232
G1 X10.808 Y95.828 E19.91719
G1 X10.782 Y93.425 E20.02909
G1 X10.796 Y92.795 E20.05843
G1 X10.86 Y92.083 E20.09172
G1 X11.002 Y91.382 E20.12502
G1 X11.164 Y90.857 E20.15061
G1 X11.375 Y90.293 E20.17865
G1 X11.674 Y89.643 E20.21196
G1 X12.043 Y89.03 E20.24528
G1 X12.478 Y88.463 E20.27855
G1 X12.974 Y87.947 E20.31188
G1 X13.524 Y87.49 E20.34518
G1 X14.122 Y87.098 E20.37847
G1 X14.85 Y86.736 E20.41633
G1 X15.297 Y86.548 E20.43891
G1 X15.971 Y86.308 E20.47223
G1 X16.911 Y86.106 E20.517
M204 S3000
M205 X10 Y10
G0 F3000 X16.987 Y86.661
M204 S1800
M205 X8 Y8
G1 F2400 X17.243 Y86.626 E20.52903
G1 X17.959 Y86.572 E20.56246
G1 X18.505 Y86.565 E20.58789
G1 X191.343 Y86.565 E28.63595
G1 X192.119 Y86.576 E28.67209
G1 X193.096 Y86.672 E28.7178
G1 X193.672 Y86.785 E28.74513
G1 X194.331 Y86.968 E28.77698
G1 X194.963 Y87.226 E28.80876
G1 X195.669 Y87.627 E28.84657
G1 X195.85 Y87.747 E28.85668
G1 X196.396 Y88.157 E28.88848
G1 X196.891 Y88.628 E28.92029
G1 X197.327 Y89.154 E28.95211
G1 X197.699 Y89.727 E28.98392
G1 X198.088 Y90.513 E29.02475
G1 X198.34 Y91.148 E29.05657
G1 X198.517 Y91.808 E29.08838
G1 X198.635 Y92.817 E29.13569
G1 X198.662 Y93.738 E29.17859
G1 X198.665 Y93.909 E29.18656
G1 X198.666 Y111 E29.98238
G1 X198.67 Y114.295 E30.13581
G1 X198.669 Y114.972 E30.16734
G1 X198.66 Y116.39 E30.23337
G1 X198.646 Y117.111 E30.26695
G1 X198.541 Y118.105 E30.31349
G1 X198.491 Y118.364 E30.32577
G1 X198.323 Y119.026 E30.35757
G1 X198.078 Y119.664 E30.3894
G1 X197.76 Y120.269 E30.42122
G1 X197.374 Y120.833 E30.45305
G1 X196.721 Y121.546 E30.49807
G1 X196.536 Y121.717 E30.5098
G1 X196.008 Y122.15 E30.54159
G1 X195.228 Y122.629 E30.58422
G1 X194.995 Y122.748 E30.5964
G1 X194.37 Y123.023 E30.62819
G1 X193.716 Y123.222 E30.66002
G1 X193.089 Y123.339 E30.68972
G1 X192.811 Y123.375 E30.70278
G1 X192.151 Y123.422 E30.73359
G1 X191.286 Y123.435 E30.77387
G1 X18.578 Y123.434 E38.81588
G1 X17.986 Y123.426 E38.84345
G1 X17.201 Y123.378 E38.88007
G1 X16.524 Y123.287 E38.91188
G1 X15.863 Y123.117 E38.94366
G1 X14.945 Y122.735 E38.98995
G1 X14.726 Y122.621 E39.00145
G1 X14.14 Y122.271 E39.03323
G1 X13.598 Y121.854 E39.06508
G1 X13.107 Y121.375 E39.09702
G1 X12.942 Y121.194 E39.10842
G1 X12.512 Y120.663 E39.14024
G1 X12.147 Y120.086 E39.17203
G1 X11.852 Y119.47 E39.20383
G1 X11.6 Y118.706 E39.24129
G1 X11.543 Y118.483 E39.25201
G1 X11.413 Y117.813 E39.28379
G1 X11.363 Y117.172 E39.31373
G1 X11.338 Y116.074 E39.36487
G1 X11.334 Y115.241 E39.40366
G1 X11.336 Y114.369 E39.44426
G1 X11.364 Y111.472 E39.57917
G1 X11.369 Y110.539 E39.62261
G1 X11.368 Y95.821 E40.30794
G1 X11.342 Y93.429 E40.41933
G1 X11.356 Y92.813 E40.44802
G1 X11.418 Y92.133 E40.47982
G1 X11.56 Y91.464 E40.51166
G1 X11.759 Y90.854 E40.54154
G1 X11.896 Y90.498 E40.5593
G1 X12.183 Y89.878 E40.59111
G1 X12.54 Y89.295 E40.62295
G1 X12.963 Y88.759 E40.65474
G1 X13.446 Y88.275 E40.68658
G1 X13.982 Y87.851 E40.7184
G1 X14.563 Y87.493 E40.75018
G1 X15.067 Y87.252 E40.77619
G1 X15.514 Y87.064 E40.79877
G1 X16.158 Y86.836 E40.83059
G1 X16.987 Y86.661 E40.87004
M204 S3000
M205 X10 Y10
G0 F3000 X17.063 Y87.216
M204 S1800
M205 X8 Y8
G1 F2400 X17.319 Y87.181 E40.88207
G1 X17.966 Y87.132 E40.91228
G1 X18.512 Y87.125 E40.93771
G1 X191.343 Y87.125 E48.98544
G1 X192.11 Y87.136 E49.02116
G1 X192.994 Y87.223 E49.06252
G1 X193.554 Y87.333 E49.0891
G1 X194.18 Y87.508 E49.11936
G1 X194.779 Y87.759 E49.14961
G1 X195.36 Y88.093 E49.18081
G1 X195.541 Y88.213 E49.19092
G1 X196.059 Y88.605 E49.22117
G1 X196.525 Y89.057 E49.2514
G1 X196.932 Y89.563 E49.28164
G1 X197.405 Y90.376 E49.32544
G1 X197.58 Y90.75 E49.34466
G1 X197.819 Y91.354 E49.37491
G1 X197.982 Y91.983 E49.40517
G1 X198.076 Y92.833 E49.44499
G1 X198.103 Y93.754 E49.48789
G1 X198.105 Y93.909 E49.49511
G1 X198.106 Y111 E50.29094
G1 X198.11 Y114.294 E50.44432
G1 X198.109 Y114.969 E50.47575
G1 X198.1 Y116.38 E50.54146
G1 X198.086 Y117.101 E50.57503
G1 X197.991 Y117.999 E50.61708
G1 X197.941 Y118.258 E50.62937
G1 X197.779 Y118.887 E50.65961
G1 X197.541 Y119.491 E50.68984
G1 X197.23 Y120.062 E50.72012
G1 X196.852 Y120.59 E50.75035
G1 X196.341 Y121.134 E50.78511
G1 X196.156 Y121.305 E50.79684
G1 X195.653 Y121.716 E50.82708
G1 X194.974 Y122.13 E50.86411
G1 X194.741 Y122.249 E50.8763
G1 X194.145 Y122.509 E50.90657
G1 X193.522 Y122.693 E50.93682
G1 X193.017 Y122.783 E50.96071
G1 X192.739 Y122.819 E50.97376
G1 X192.143 Y122.862 E51.00159
G1 X191.286 Y122.875 E51.0415
G1 X18.586 Y122.875 E59.08313
G1 X17.994 Y122.867 E59.1107
G1 X17.244 Y122.82 E59.14569
G1 X16.6 Y122.731 E59.17596
G1 X15.972 Y122.564 E59.20622
G1 X15.204 Y122.238 E59.24507
G1 X14.985 Y122.124 E59.25657
G1 X14.428 Y121.79 E59.28681
G1 X13.917 Y121.389 E59.31706
G1 X13.521 Y120.998 E59.34297
G1 X13.356 Y120.817 E59.35437
G1 X12.949 Y120.311 E59.38461
G1 X12.607 Y119.759 E59.41485
G1 X12.335 Y119.169 E59.4451
G1 X12.142 Y118.568 E59.47449
G1 X12.085 Y118.345 E59.48521
G1 X11.964 Y117.706 E59.51549
G1 X11.922 Y117.159 E59.54104
G1 X11.898 Y116.071 E59.59171
G1 X11.894 Y115.242 E59.63032
G1 X11.896 Y114.374 E59.67073
G1 X11.924 Y111.477 E59.80564
G1 X11.929 Y110.541 E59.84922
G1 X11.928 Y95.815 E60.53492
G1 X11.902 Y93.432 E60.64589
G1 X11.916 Y92.832 E60.67384
G1 X11.977 Y92.185 E60.7041
G1 X12.117 Y91.55 E60.73438
G1 X12.287 Y91.042 E60.75932
G1 X12.417 Y90.703 E60.77623
G1 X12.692 Y90.114 E60.8065
G1 X13.036 Y89.563 E60.83674
G1 X13.446 Y89.059 E60.867
G1 X13.915 Y88.609 E60.89726
G1 X14.435 Y88.22 E60.9275
G1 X15.284 Y87.768 E60.97229
G1 X15.731 Y87.58 E60.99487
G1 X16.344 Y87.365 E61.02512
G1 X17.063 Y87.216 E61.05931
M204 S3000
M205 X10 Y10
G1 F2400 E55.05931
;MESH:60W-FM-PA_Side2.stl
G0 F3000 X17.798 Y91.756
G0 X18.029 Y93.064
G0 X18.594 Y94.095
M204 S1800
M205 X8 Y8
;TYPE:WALL-INNER
G1 F2400 E61.05931
G1 F1500 X18.593 Y94.094 E61.05937
G1 X18.584 Y93.805 E61.07284
G1 X18.873 Y93.805 E61.08146
G1 X18.874 Y93.805 E61.08151
G1 X191.425 Y93.805 E69.11621
G1 X191.426 Y111 E69.91688
G1 X191.43 Y114.684 E70.08842
G1 X191.421 Y116.195 E70.15878
G1 X18.579 Y116.195 E78.20703
G1 X18.572 Y114.901 E78.26728
G1 X18.609 Y111.007 E78.44861
G1 X18.608 Y94.475 E79.21841
G1 X18.594 Y94.095 E79.23612
M204 S3000
M205 X10 Y10
G0 F3000 X27.781 Y101.001
M204 S1800
M205 X8 Y8
G1 F1500 X28.003 Y101.525 E79.26262
G1 X28.039 Y101.609 E79.26687
G1 X27.956 Y101.546 E79.26752
G1 X27.614 Y101.404 E79.27328
G1 X27.515 Y101.363 E79.27827
G1 X27.133 Y101.203 E79.29755
G1 X26.25 Y101.088 E79.33901
G1 X25.367 Y101.203 E79.38048
G1 X24.983 Y101.363 E79.39985
G1 X24.907 Y101.395 E79.40369
G1 X24.544 Y101.546 E79.42199
G1 X24.468 Y101.604 E79.42645
G1 X24.499 Y101.528 E79.42645
G1 X24.728 Y100.968 E79.44291
G1 X24.738 Y100.886 E79.44647
G1 X24.818 Y100.239 E79.47683
G1 X24.719 Y99.516 E79.51081
G1 X24.433 Y98.835 E79.5452
G1 X23.98 Y98.256 E79.57943
G1 X23.398 Y97.815 E79.61344
G1 X22.719 Y97.539 E79.64757
G1 X21.99 Y97.446 E79.68179
G1 X21.264 Y97.546 E79.71591
G1 X20.585 Y97.832 E79.75022
G1 X20.007 Y98.284 E79.78438
G1 X19.565 Y98.867 E79.81845
G1 X19.289 Y99.546 E79.85258
G1 X19.196 Y100.274 E79.88675
G1 X19.296 Y101.002 E79.92097
G1 X19.582 Y101.677 E79.95511
G1 X20.031 Y102.257 E79.98926
G1 X20.617 Y102.7 E80.02347
G1 X21.298 Y102.978 E80.05772
G1 X22.024 Y103.068 E80.09178
G1 X22.644 Y102.983 E80.12092
G1 X22.751 Y102.969 E80.12595
G1 X23.275 Y102.747 E80.15245
G1 X23.359 Y102.711 E80.1567
G1 X23.296 Y102.794 E80.15735
G1 X23.154 Y103.136 E80.16311
G1 X23.113 Y103.235 E80.16761
G1 X22.953 Y103.617 E80.1869
G1 X22.838 Y104.5 E80.22836
G1 X22.953 Y105.383 E80.26983
G1 X23.113 Y105.767 E80.2892
G1 X23.145 Y105.843 E80.29304
G1 X23.296 Y106.206 E80.31134
G1 X23.354 Y106.282 E80.3158
G1 X23.278 Y106.251 E80.3158
G1 X22.718 Y106.022 E80.33226
G1 X22.636 Y106.012 E80.33582
G1 X21.989 Y105.932 E80.36618
G1 X21.266 Y106.031 E80.40016
G1 X20.585 Y106.317 E80.43455
G1 X20.006 Y106.77 E80.46878
G1 X19.565 Y107.352 E80.50279
G1 X19.289 Y108.031 E80.53692
G1 X19.196 Y108.76 E80.57114
G1 X19.296 Y109.486 E80.60526
G1 X19.582 Y110.165 E80.63957
G1 X20.034 Y110.743 E80.67373
G1 X20.617 Y111.185 E80.7078
G1 X21.296 Y111.461 E80.74193
G1 X22.024 Y111.554 E80.7761
G1 X22.752 Y111.454 E80.81032
G1 X23.427 Y111.168 E80.84446
G1 X24.007 Y110.719 E80.87861
G1 X24.45 Y110.133 E80.91282
G1 X24.728 Y109.452 E80.94707
G1 X24.818 Y108.726 E80.98113
G1 X24.733 Y108.106 E81.01027
G1 X24.719 Y107.999 E81.0153
G1 X24.497 Y107.475 E81.0418
G1 X24.461 Y107.391 E81.04605
G1 X24.544 Y107.454 E81.0467
G1 X24.886 Y107.596 E81.05246
G1 X24.985 Y107.637 E81.05696
G1 X25.367 Y107.797 E81.07625
G1 X26.25 Y107.912 E81.11771
G1 X27.133 Y107.797 E81.15918
G1 X27.517 Y107.637 E81.17855
G1 X27.593 Y107.605 E81.18239
G1 X27.956 Y107.454 E81.20069
G1 X28.032 Y107.396 E81.20515
G1 X28.001 Y107.472 E81.20515
G1 X27.772 Y108.032 E81.22161
G1 X27.762 Y108.114 E81.22517
G1 X27.682 Y108.761 E81.25553
G1 X27.781 Y109.484 E81.28951
G1 X28.067 Y110.165 E81.3239
G1 X28.52 Y110.744 E81.35813
G1 X29.102 Y111.185 E81.39214
G1 X29.781 Y111.461 E81.42627
G1 X30.51 Y111.554 E81.46049
G1 X31.236 Y111.454 E81.49461
G1 X31.915 Y111.168 E81.52892
G1 X32.493 Y110.716 E81.56308
G1 X32.935 Y110.133 E81.59715
G1 X33.211 Y109.454 E81.63128
G1 X33.304 Y108.726 E81.66545
G1 X33.204 Y107.998 E81.69967
G1 X32.918 Y107.323 E81.73381
G1 X32.469 Y106.743 E81.76796
G1 X31.883 Y106.3 E81.80217
G1 X31.202 Y106.022 E81.83642
G1 X30.476 Y105.932 E81.87048
G1 X29.856 Y106.017 E81.89962
G1 X29.749 Y106.031 E81.90465
G1 X29.225 Y106.253 E81.93115
G1 X29.141 Y106.289 E81.9354
G1 X29.204 Y106.206 E81.93605
G1 X29.346 Y105.864 E81.94181
G1 X29.387 Y105.765 E81.94631
G1 X29.547 Y105.383 E81.9656
G1 X29.662 Y104.5 E82.00706
G1 X29.547 Y103.617 E82.04853
G1 X29.387 Y103.233 E82.0679
G1 X29.355 Y103.157 E82.07174
G1 X29.204 Y102.794 E82.09004
G1 X29.146 Y102.718 E82.0945
G1 X29.222 Y102.749 E82.0945
G1 X29.782 Y102.978 E82.11096
G1 X29.864 Y102.988 E82.11452
G1 X30.511 Y103.068 E82.14488
G1 X31.234 Y102.969 E82.17886
G1 X31.915 Y102.683 E82.21325
G1 X32.494 Y102.23 E82.24748
G1 X32.935 Y101.648 E82.28149
G1 X33.211 Y100.969 E82.31561
G1 X33.304 Y100.24 E82.34984
G1 X33.204 Y99.514 E82.38396
G1 X32.918 Y98.835 E82.41827
G1 X32.466 Y98.257 E82.45243
G1 X31.883 Y97.815 E82.4865
G1 X31.204 Y97.539 E82.52063
G1 X30.476 Y97.446 E82.5548
G1 X29.748 Y97.546 E82.58902
G1 X29.073 Y97.832 E82.62316
G1 X28.493 Y98.281 E82.65731
G1 X28.05 Y98.867 E82.69152
G1 X27.772 Y99.548 E82.72577
G1 X27.682 Y100.274 E82.75983
G1 X27.767 Y100.894 E82.78897
G1 X27.781 Y101.001 E82.79351
M204 S3000
M205 X10 Y10
G0 F3000 X25.513 Y101.749
M204 S1800
M205 X8 Y8
G1 F1500 X24.827 Y102.035 E82.82812
G1 X24.237 Y102.487 E82.86273
G1 X23.785 Y103.077 E82.89734
G1 X23.499 Y103.763 E82.93195
G1 X23.403 Y104.5 E82.96655
G1 X23.499 Y105.237 E83.00116
G1 X23.785 Y105.923 E83.03577
G1 X24.237 Y106.513 E83.07038
G1 X24.827 Y106.965 E83.10499
G1 X25.513 Y107.251 E83.13959
G1 X26.25 Y107.347 E83.1742
G1 X26.987 Y107.251 E83.20881
G1 X27.673 Y106.965 E83.24342
G1 X28.263 Y106.513 E83.27803
G1 X28.715 Y105.923 E83.31263
G1 X29.001 Y105.237 E83.34724
G1 X29.097 Y104.5 E83.38185
G1 X29.001 Y103.763 E83.41646
G1 X28.715 Y103.077 E83.45107
G1 X28.263 Y102.487 E83.48567
G1 X27.673 Y102.035 E83.52028
G1 X26.987 Y101.749 E83.55489
G1 X26.25 Y101.653 E83.5895
G1 X25.513 Y101.749 E83.62411
M204 S3000
M205 X10 Y10
G0 F3000 X23.946 Y99.121
M204 S1800
M205 X8 Y8
G1 F1500 X23.584 Y98.658 E83.65147
G1 X23.119 Y98.306 E83.67863
G1 X22.576 Y98.085 E83.70593
G1 X21.993 Y98.011 E83.73329
G1 X21.413 Y98.091 E83.76055
G1 X20.871 Y98.319 E83.78793
G1 X20.409 Y98.68 E83.81524
G1 X20.056 Y99.146 E83.84246
G1 X19.835 Y99.689 E83.86976
G1 X19.761 Y100.271 E83.89707
G1 X19.841 Y100.852 E83.92438
G1 X20.069 Y101.392 E83.95168
G1 X20.428 Y101.855 E83.97896
G1 X20.896 Y102.209 E84.00628
G1 X21.441 Y102.431 E84.03368
G1 X22.021 Y102.503 E84.0609
G1 X22.602 Y102.424 E84.0882
G1 X23.143 Y102.195 E84.11556
G1 X23.605 Y101.835 E84.14283
G1 X23.959 Y101.369 E84.17008
G1 X24.181 Y100.825 E84.19744
G1 X24.253 Y100.243 E84.22475
G1 X24.174 Y99.665 E84.25191
G1 X23.946 Y99.121 E84.27938
M204 S3000
M205 X10 Y10
G0 F3000 X18.048 Y94.485
M204 S1800
M205 X8 Y8
G1 F1500 X18.018 Y93.66 E84.31782
G1 X18.013 Y93.509 E84.32485
G1 X18.018 Y93.258 E84.33654
G1 X18.058 Y93.245 E84.3385
G1 X18.209 Y93.245 E84.34553
G1 X191.966 Y93.245 E92.43638
G1 X191.979 Y93.248 E92.43701
G1 X191.985 Y93.75 E92.46038
G1 X191.986 Y111 E93.26361
G1 X191.99 Y114.687 E93.4353
G1 X191.978 Y116.755 E93.53159
G1 X18.022 Y116.755 E101.63171
G1 X18.012 Y114.896 E101.71828
G1 X18.049 Y111.004 E101.89951
G1 X18.048 Y94.485 E102.66871
M204 S3000
M205 X10 Y10
G0 F3000 X20.871 Y106.804
